X: 36
T:Earl's Chair, The
M:C|
L:1/8
R:Reel
K:BMin
A[|:B2dB BAFA|BcdA BAFB|AF~F2 DF~F2|AFdB ADFA|!
B2dB BAFA|BAdA BAFB|AFAB defd|1edef dAFA:|2edef d3f|!
|:e3f d2Bd|edef dBAB|~e3f ~d3e|fedB ADFA|!
e2df dB~B2|gB~B2 defg|afbf afeg|1fedB A2Bd:|2fedB ADFA|]!
